WordPressTheme/assets/images/common/404-bg.svg

<svg width="329" height="295" viewBox="0 0 329 295" fill="none" xmlns="http://www.w3.org/2000/svg">
<path d="M300.677 133.009C300.642 131.355 300.188 129.737 299.358 128.307C297.024 124.241 291.89 121.653 284.109 120.615C279.607 120.015 275.374 119.279 271.527 118.429C259.736 115.803 247.653 114.726 235.583 115.224C225.428 115.606 215.301 116.524 205.243 117.976C203.112 118.3 200.638 118.694 197.894 119.134C177.518 122.387 136.065 129.004 110.316 123.903C106.819 117.299 106.216 111.399 108.528 106.348C113.546 95.3805 130.539 90.242 136.691 88.7098C143.973 99.8361 153.23 106.683 164.228 109.074C184.683 113.519 203.524 100.855 204.317 100.315C204.922 99.9011 205.378 99.3044 205.62 98.6123C205.861 97.9201 205.875 97.1689 205.658 96.4686C205.442 95.7682 205.007 95.1555 204.417 94.7202C203.827 94.2849 203.114 94.0497 202.381 94.0492C200.522 93.918 198.729 93.3073 197.176 92.2765C193.752 90.1956 190.951 87.2306 189.068 83.6931C182.058 70.7779 171.94 65.9632 166.127 64.1996C177.957 35.866 162.576 17.3466 161.883 16.5379L161.788 16.4364C158.079 12.4405 160.165 5.19649 160.184 5.13561C160.379 4.49792 160.383 3.81746 160.197 3.17729C160.011 2.53712 159.643 1.96496 159.137 1.53066C158.631 1.09636 158.01 0.818715 157.349 0.731629C156.688 0.644543 156.016 0.751783 155.415 1.04025C139.078 8.86059 129.35 23.4297 127.278 43.1708C126.542 50.6648 126.806 58.2235 128.065 65.6476C120.184 65.1187 112.273 65.2884 104.422 66.1549C101.319 66.4594 42.4114 72.7749 16.2665 119.333C4.75969 139.824 3.6841 164.425 13.3867 185.14C21.3014 202.041 34.3861 215.047 52.2946 223.867C47.0604 229.408 42.7631 235.765 39.5712 242.687C28.4916 266.691 5.07121 263.169 4.08694 263.008C3.36116 262.885 2.61517 262.999 1.95903 263.333C1.30289 263.666 0.771352 264.202 0.442851 264.861C0.11435 265.519 0.00628144 266.266 0.13459 266.991C0.262899 267.716 0.620789 268.38 1.15546 268.886C12.2888 279.419 26.4916 285.624 40.3038 284.647C66.5116 282.796 87.9635 260.156 95.9645 250.412C99.2592 246.346 102.918 242.59 106.896 239.189C107.045 239.203 107.195 239.209 107.345 239.204C124.006 238.142 145.373 239.295 145.535 239.305C146.099 239.345 146.651 239.372 147.213 239.407C140.831 243.932 135.556 249.843 131.785 256.698C126.272 266.589 112.147 287.241 90.2933 287.388C94.2279 284.416 97.3039 280.454 99.2073 275.905C101.111 271.356 101.774 266.384 101.128 261.495C101.086 261.041 100.954 260.601 100.739 260.199C100.524 259.797 100.232 259.441 99.8787 259.154C99.5254 258.866 99.1184 258.651 98.6813 258.522C98.2443 258.393 97.7859 258.353 97.333 258.403C96.8801 258.453 96.4417 258.593 96.0434 258.814C95.6451 259.035 95.2948 259.334 95.013 259.692C94.7312 260.05 94.5235 260.461 94.402 260.9C94.2805 261.339 94.2477 261.798 94.3055 262.25C94.9535 267.372 93.754 272.558 90.9224 276.875C87.8569 281.256 83.3691 284.441 78.2214 285.888C77.4702 286.048 76.7941 286.454 76.3012 287.043C75.8083 287.632 75.527 288.369 75.5023 289.136C75.4777 289.904 75.7111 290.657 76.1652 291.277C76.6193 291.896 77.2679 292.345 78.0072 292.552C81.9983 293.691 86.1266 294.278 90.2771 294.296C115.63 294.296 131.59 271.147 137.782 260.037C141.385 253.43 146.609 247.847 152.964 243.815C155.369 242.332 157.893 241.049 160.509 239.98C160.55 239.963 160.583 239.938 160.623 239.919C161.696 239.932 162.771 239.948 163.832 239.948C233.435 239.948 275.512 211.174 291.116 197.995C294.828 194.856 299.53 193.131 304.391 193.124H312.889C316.452 193.172 319.948 192.15 322.925 190.192C330.492 185.082 329.442 176.839 327.577 172.478C327.707 167.231 326.873 142.582 300.677 133.009ZM90.6596 246.057C84.8616 253.117 64.0662 276.274 39.8726 277.797C30.521 278.386 21.5236 275.684 13.0204 269.755C22.8357 268.593 37.4637 263.636 45.833 245.503C45.9253 245.292 55.2748 224.314 69.9109 220.655C70.7876 220.428 71.5393 219.864 72.0021 219.086C72.465 218.308 72.6015 217.378 72.382 216.5C72.1625 215.621 71.6047 214.865 70.8302 214.396C70.0557 213.926 69.1271 213.782 68.2468 213.995C64.5333 214.974 61.0415 216.655 57.9597 218.946C40.1263 210.821 27.2141 198.481 19.6038 182.229C10.8368 163.515 11.8271 141.259 22.2522 122.695C46.7523 79.063 104.545 73.0397 105.125 72.9849C105.14 72.9849 105.154 72.9778 105.169 72.9758C105.184 72.9738 105.198 72.9758 105.213 72.9758C105.359 72.9585 119.843 71.2447 131.885 72.9667C132.446 73.0461 133.018 72.9855 133.55 72.7904C134.082 72.5953 134.557 72.2716 134.934 71.8482C135.311 71.4248 135.577 70.9149 135.708 70.3638C135.84 69.8127 135.834 69.2376 135.689 68.6897C133.814 60.4965 133.285 52.0525 134.124 43.6894C135.737 28.7468 141.99 17.5871 152.738 10.4243C152.732 14.3203 154.134 18.0874 156.686 21.032C157.671 22.2293 170.964 39.1617 158.167 65.1128C157.92 65.6125 157.799 66.1646 157.814 66.7216C157.828 67.2786 157.978 67.8236 158.251 68.3097C158.523 68.7957 158.91 69.2081 159.377 69.5112C159.845 69.8143 160.379 69.999 160.934 70.0494C161.07 70.0616 174.613 71.4639 183.038 86.9726C185.511 91.5956 189.183 95.4668 193.67 98.1791C193.706 98.1994 193.743 98.2217 193.779 98.244C187.17 101.263 176.491 104.738 165.643 102.36C155.902 100.229 147.691 93.7346 141.242 83.0518C140.88 82.4533 140.344 81.9795 139.705 81.6939C139.067 81.4083 138.356 81.3245 137.669 81.4537C136.541 81.6647 109.922 86.8438 102.294 103.479C99.7575 109.022 99.6032 115.078 101.819 121.551C98.3416 120.35 95.1627 118.415 92.4983 115.878C90.4911 113.911 88.9676 111.505 88.0478 108.85C87.9094 108.419 87.6872 108.02 87.394 107.675C87.1008 107.331 86.7423 107.048 86.3393 106.842C85.9362 106.637 85.4965 106.513 85.0454 106.478C84.5944 106.443 84.1409 106.497 83.711 106.638C83.2811 106.779 82.8833 107.004 82.5405 107.299C82.1978 107.595 81.9168 107.955 81.7138 108.359C81.5107 108.763 81.3896 109.204 81.3574 109.655C81.3253 110.107 81.3826 110.56 81.5262 110.989C82.7723 114.651 84.8539 117.974 87.6064 120.692C107.178 140.573 166.895 131.036 198.978 125.913C201.701 125.478 204.153 125.086 206.273 124.765C216.087 123.351 225.97 122.456 235.878 122.085C247.351 121.61 258.836 122.634 270.044 125.129C274.08 126.021 278.506 126.792 283.2 127.418C290.369 128.374 292.321 130.13 293.804 132.967C292.191 133.486 290.527 133.826 288.84 133.982C286.107 134.248 283.352 134.184 280.634 133.791C262.702 131.54 244.5 134.431 228.148 142.128C216.767 147.674 206.765 155.686 198.868 165.581C191.414 174.738 170.659 196.065 139.016 196.317C138.116 196.336 137.259 196.708 136.63 197.352C136.002 197.997 135.651 198.863 135.655 199.763C135.658 200.664 136.016 201.527 136.65 202.166C137.284 202.806 138.143 203.17 139.044 203.182H139.072C173.63 202.907 196.125 179.825 204.191 169.915C211.45 160.807 220.647 153.431 231.113 148.321C246.254 141.189 263.111 138.509 279.718 140.595C282.984 141.061 286.294 141.132 289.577 140.807C292.171 140.58 294.719 139.986 297.146 139.043C313.907 144.656 318.847 157.105 320.239 165.243C314.276 161.21 307.287 158.963 300.091 158.766H300.05C261.936 155.444 230.156 184.532 227.702 186.84C199.334 209.676 153.121 215.455 152.66 215.512C152.593 215.52 152.524 215.531 152.457 215.542L128.525 219.878C127.239 220.073 116.862 221.95 102.984 233.498C98.4852 237.282 94.3582 241.488 90.6596 246.057ZM286.543 192.873C277.34 200.485 267.287 207.005 256.583 212.302C259.39 207.79 261.708 202.992 263.497 197.989C263.81 197.134 263.77 196.19 263.387 195.364C263.004 194.538 262.309 193.898 261.454 193.585C261.031 193.43 260.582 193.36 260.131 193.379C259.681 193.398 259.239 193.505 258.83 193.694C258.004 194.077 257.364 194.773 257.051 195.627C250.151 214.467 241.006 219.184 240.776 219.297C240.746 219.312 240.721 219.333 240.692 219.347C234.394 221.787 227.972 223.894 221.453 225.661C225.604 220.466 228.741 214.536 230.7 208.181C236.698 189.798 243.181 183.568 244.139 182.722C251.577 177.62 259.607 173.441 268.053 170.276C265.967 173.294 264.172 176.502 262.693 179.859C262.495 180.268 262.383 180.713 262.363 181.167C262.343 181.621 262.416 182.074 262.578 182.499C262.739 182.924 262.986 183.311 263.302 183.637C263.619 183.963 263.998 184.221 264.418 184.396C265.259 184.65 266.16 184.619 266.981 184.307C267.802 183.995 268.496 183.419 268.956 182.671C274.717 169.848 281.021 166.881 282.032 166.473C287.827 165.411 293.738 165.126 299.608 165.625C299.733 165.636 299.869 165.639 299.996 165.638H300.088C297.94 169.104 296.328 172.875 295.307 176.823C293.613 182.757 290.619 188.24 286.543 192.873ZM187.05 231.94C189.175 229.473 190.915 226.7 192.213 223.714C192.23 223.676 192.247 223.635 192.262 223.597C192.297 223.51 195.604 215.262 200.278 210.069C210.231 206.206 219.669 201.132 228.381 194.961C226.794 198.584 225.391 202.284 224.176 206.048C218.081 224.732 207.088 228.835 205.94 229.217C199.953 230.355 193.664 231.285 187.05 231.943V231.94ZM116.984 231.947C124.5 227.493 129.391 226.694 129.547 226.67C129.571 226.67 129.592 226.657 129.615 226.654C129.639 226.651 129.672 226.654 129.701 226.646L151.599 222.678C149.398 226.49 146.389 229.774 142.784 232.299C137.748 232.086 127.475 231.74 116.984 231.95V231.947ZM152.6 232.821C155.709 229.493 158.16 225.607 159.825 221.368C169.794 219.63 179.627 217.189 189.251 214.063C188.004 216.312 186.886 218.632 185.903 221.009C182.313 229.141 176.539 232.12 174.944 232.813C167.822 233.141 160.378 233.17 152.598 232.824L152.6 232.821ZM319.084 184.505C317.242 185.694 315.087 186.306 312.894 186.262H304.391C302.497 186.268 300.608 186.472 298.756 186.87C300.074 184.233 301.136 181.475 301.925 178.634C303.853 171.633 306.559 168.152 307.738 166.892C312.895 168.367 317.559 171.207 321.238 175.111C321.845 176.53 323.558 181.485 319.082 184.508L319.084 184.505Z" fill="#0D2936" fill-opacity="0.1"/>
</svg>

<svg width="329" height="295" fill="none" xmlns="http://www.w3.org/2000/svg"><path d="M300.677 133.009a9.78 9.78 0 00-1.319-4.702c-2.334-4.066-7.468-6.654-15.249-7.692-4.502-.6-8.735-1.336-12.582-2.186a138.988 138.988 0 00-35.944-3.205 288.145 288.145 0 00-30.34 2.752c-2.131.324-4.605.718-7.349 1.158-20.376 3.253-61.829 9.87-87.578 4.769-3.497-6.604-4.1-12.504-1.788-17.555 5.018-10.968 22.011-16.106 28.163-17.638 7.282 11.126 16.539 17.973 27.537 20.364 20.455 4.445 39.296-8.219 40.089-8.759a3.436 3.436 0 001.341-3.846 3.429 3.429 0 00-3.277-2.42 10.784 10.784 0 01-5.205-1.773 22.313 22.313 0 01-8.108-8.583c-7.01-12.915-17.128-17.73-22.941-19.493 11.83-28.334-3.551-46.853-4.244-47.662l-.095-.102c-3.709-3.995-1.623-11.24-1.604-11.3a3.427 3.427 0 00-1.047-3.605 3.434 3.434 0 00-3.722-.49c-16.337 7.82-26.065 22.389-28.137 42.13a84.838 84.838 0 00.787 22.477 133.824 133.824 0 00-23.643.507c-3.103.304-62.01 6.62-88.155 53.178-11.507 20.491-12.583 45.092-2.88 65.807 7.914 16.901 21 29.907 38.908 38.727a70.239 70.239 0 00-12.724 18.82c-11.08 24.004-34.5 20.482-35.484 20.321a3.428 3.428 0 00-3.644 1.853 3.43 3.43 0 00.712 4.025c11.134 10.533 25.337 16.738 39.149 15.761 26.208-1.851 47.66-24.491 55.66-34.235a85.988 85.988 0 0110.932-11.223c.149.014.299.02.449.015 16.661-1.062 38.028.091 38.19.101.564.04 1.116.067 1.678.102a51.807 51.807 0 00-15.428 17.291c-5.513 9.891-19.638 30.543-41.492 30.69a27.874 27.874 0 0010.835-25.893 3.43 3.43 0 00-3.795-3.092 3.436 3.436 0 00-2.931 2.497 3.43 3.43 0 00-.097 1.35 21.7 21.7 0 01-3.383 14.625 23.147 23.147 0 01-12.7 9.013 3.436 3.436 0 00-2.72 3.248 3.436 3.436 0 002.505 3.416 45.429 45.429 0 0012.27 1.744c25.353 0 41.313-23.149 47.505-34.259a44.367 44.367 0 0115.182-16.222 51.474 51.474 0 017.545-3.835c.041-.017.074-.042.114-.061 1.073.013 2.148.029 3.209.029 69.603 0 111.68-28.774 127.284-41.953a20.604 20.604 0 0113.275-4.871h8.498a17.828 17.828 0 0010.036-2.932c7.567-5.11 6.517-13.353 4.652-17.714.13-5.247-.704-29.896-26.9-39.469zM90.66 246.057c-5.798 7.06-26.594 30.217-50.787 31.74-9.352.589-18.35-2.113-26.853-8.042 9.816-1.162 24.444-6.119 32.813-24.252.092-.211 9.442-21.189 24.078-24.848a3.435 3.435 0 002.471-4.155 3.431 3.431 0 00-4.135-2.505 30.109 30.109 0 00-10.287 4.951c-17.834-8.125-30.746-20.465-38.356-36.717-8.767-18.714-7.777-40.97 2.648-59.534 24.5-43.632 82.293-49.655 82.873-49.71.015 0 .029-.007.044-.01h.044c.146-.016 14.63-1.73 26.672-.008a3.437 3.437 0 003.804-4.277 77.424 77.424 0 01-1.565-25c1.613-14.943 7.866-26.103 18.614-33.266a16.159 16.159 0 003.948 10.608c.985 1.197 14.278 18.13 1.481 44.08a3.422 3.422 0 00-.353 1.61 3.43 3.43 0 003.12 3.328c.136.012 13.679 1.414 22.104 16.923a29.172 29.172 0 0010.741 11.271c-6.609 3.019-17.288 6.494-28.136 4.116-9.741-2.131-17.952-8.625-24.401-19.308a3.433 3.433 0 00-3.573-1.598c-1.128.21-27.747 5.39-35.375 22.025-2.537 5.543-2.69 11.599-.475 18.072a25.67 25.67 0 01-9.32-5.673 18.167 18.167 0 01-4.451-7.028 3.437 3.437 0 00-1.709-2.008 3.442 3.442 0 00-2.628-.204 3.438 3.438 0 00-2.354 3.017 3.43 3.43 0 00.17 1.334 24.918 24.918 0 006.08 9.703c19.571 19.881 79.288 10.344 111.371 5.221 2.723-.435 5.175-.827 7.295-1.148a281.46 281.46 0 0129.605-2.68 132.088 132.088 0 0134.166 3.044c4.036.892 8.462 1.663 13.156 2.289 7.169.956 9.121 2.712 10.604 5.549a23.168 23.168 0 01-4.964 1.015 34.194 34.194 0 01-8.206-.191 95.352 95.352 0 00-52.486 8.337 85.23 85.23 0 00-29.28 23.453c-7.454 9.157-28.209 30.484-59.852 30.736a3.436 3.436 0 00-2.366 5.849 3.432 3.432 0 002.394 1.016h.028c34.558-.275 57.053-23.357 65.119-33.267a78.426 78.426 0 0126.922-21.594 88.25 88.25 0 0148.605-7.726c3.266.466 6.576.537 9.859.212a27.523 27.523 0 007.569-1.764c16.761 5.613 21.701 18.062 23.093 26.2a37.809 37.809 0 00-20.148-6.477h-.041c-38.114-3.322-69.894 25.766-72.348 28.074-28.368 22.836-74.581 28.615-75.042 28.672a4.73 4.73 0 00-.203.03l-23.932 4.336c-1.286.195-11.663 2.072-25.541 13.62a92.28 92.28 0 00-12.324 12.559zm195.883-53.184a154.568 154.568 0 01-29.96 19.429 74.73 74.73 0 006.914-14.313 3.434 3.434 0 00-6.446-2.362c-6.9 18.84-16.045 23.557-16.275 23.67-.03.015-.055.036-.084.05a193.07 193.07 0 01-19.239 6.314 53.026 53.026 0 009.247-17.48c5.998-18.383 12.481-24.613 13.439-25.459a111.356 111.356 0 0123.914-12.446 57.934 57.934 0 00-5.36 9.583 3.338 3.338 0 001.725 4.537 3.977 3.977 0 004.538-1.725c5.761-12.823 12.065-15.79 13.076-16.198a66.336 66.336 0 0117.576-.848c.125.011.261.014.388.013h.092a40.467 40.467 0 00-4.781 11.185 41.58 41.58 0 01-8.764 16.05zM187.05 231.94a32.385 32.385 0 005.212-8.343c.035-.087 3.342-8.335 8.016-13.528a129.988 129.988 0 0028.103-15.108 117.885 117.885 0 00-4.205 11.087c-6.095 18.684-17.088 22.787-18.236 23.169a215.049 215.049 0 01-18.89 2.726v-.003zm-70.066.007c7.516-4.454 12.407-5.253 12.563-5.277.024 0 .045-.013.068-.016.024-.003.057 0 .086-.008l21.898-3.968a30.156 30.156 0 01-8.815 9.621c-5.036-.213-15.309-.559-25.8-.349v-.003zm35.616.874a36.12 36.12 0 007.225-11.453 214.511 214.511 0 0029.426-7.305 67.605 67.605 0 00-3.348 6.946c-3.59 8.132-9.364 11.111-10.959 11.804-7.122.328-14.566.357-22.346.011l.002-.003zm166.484-48.316a11.006 11.006 0 01-6.19 1.757h-8.503c-1.894.006-3.783.21-5.635.608a45.89 45.89 0 003.169-8.236c1.928-7.001 4.634-10.482 5.813-11.742a29.818 29.818 0 0113.5 8.219c.607 1.419 2.32 6.374-2.156 9.397l.002-.003z" fill="#0D2936" fill-opacity=".1"/></svg>
